lib/nrk-hardware-tv.svg

<svg xmlns="http://www.w3.org/2000/svg" viewBox="0 0 15 15"><path d="M2,5.00292933 L2,9.99707067 C2,10.5621186 2.44573523,11 2.9955775,11 L12.0044225,11 C12.555163,11 13,10.5509732 13,9.99707067 L13,5.00292933 C13,4.43788135 12.5542648,4 12.0044225,4 L2.9955775,4 C2.44483697,4 2,4.44902676 2,5.00292933 Z M1,5.00292933 C1,3.89820792 1.89106806,3 2.9955775,3 L12.0044225,3 C13.1103222,3 14,3.8893679 14,5.00292933 L14,9.99707067 C14,11.1017921 13.1089319,12 12.0044225,12 L2.9955775,12 C1.8896778,12 1,11.1106321 1,9.99707067 L1,5.00292933 Z M4.375,12.25 L10.625,12.25 C10.8321068,12.25 11,12.4178932 11,12.625 C11,12.8321067 10.8321068,13 10.625,13 L4.375,13 C4.16789322,13 4,12.8321067 4,12.625 C4,12.4178932 4.16789322,12.25 4.375,12.25 Z"/></svg>

<svg xmlns="http://www.w3.org/2000/svg" viewBox="0 0 15 15">
  <path d="M2 5v5a1 1 0 0 0 1 1h9a1 1 0 0 0 1-1V5a1 1 0 0 0-1-1H3a1 1 0 0 0-1 1zM1 5c0-1.1.9-2 2-2h9a2 2 0 0 1 2 2v5a2 2 0 0 1-2 2H3a2 2 0 0 1-2-2V5zm3.38 7.25h6.25a.38.38 0 0 1 0 .75H4.37a.38.38 0 0 1 0-.75z"/>
</svg>
